X: 97
T: Sihuo buzhong caizhu de di
%%abc-version 2.0
%%abcx-abcm2ps-target-version 5.9.1 (29 Sep 2008)
%%abc-creator hum2abc beta
%%abcx-conversion-date 2013/10/02 07:52:29
%%abc-edited-by Helmut Schaffrath
%%humdrum-veritas 4203538061
%%humdrum-veritas-data 346943463
%%continueall 1
%%barnumbers 0
L: 1/8
M: 2/4
K: Bb
f' d' c'/ d'/ c'/ b/ [I:setbarnb 1]| 
g b d3/ f/ | 
d f b d | 
c4 | 
f' d' c'/ d'/ c'/ b/ | 
g fg2 | 
b g f/ g/ f/ d/ | 
f4 |]  



